svgs/light/laptop.svg

<svg xmlns="http://www.w3.org/2000/svg" viewBox="0 0 640 512"><!-- Font Awesome Pro 6.0.0-alpha2 by @fontawesome - https://fontawesome.com License - https://fontawesome.com/license (Commercial License) --><path d="M624 384H16C7.25 384 0 391.25 0 400V416C0 451.25 28.75 480 64 480H576C611.25 480 640 451.25 640 416V400C640 391.25 632.75 384 624 384ZM576 448H64C46.355 448 32 433.645 32 416H608C608 433.645 593.645 448 576 448ZM80 352C88.844 352 96 344.844 96 336V96C96 78.344 110.359 64 128 64H512C529.641 64 544 78.344 544 96V336C544 344.844 551.156 352 560 352S576 344.844 576 336V96C576 60.719 547.297 32 512 32H128C92.703 32 64 60.719 64 96V336C64 344.844 71.156 352 80 352Z"/></svg>

<svg xmlns="http://www.w3.org/2000/svg" viewBox="0 0 640 512"><!--! Font Awesome Pro 6.3.0 by @fontawesome - https://fontawesome.com License - https://fontawesome.com/license (Commercial License) Copyright 2023 Fonticons, Inc. --><path d="M624 383.1h-608c-8.75 0-16 7.25-16 16v16c0 35.25 28.75 64 64 64h512c35.25 0 64-28.75 64-64v-16C640 391.2 632.8 383.1 624 383.1zM576 448H64c-17.64 0-32-14.36-32-32h576C608 433.6 593.6 448 576 448zM80 352C88.84 352 96 344.8 96 336V96c0-17.66 14.36-32 32-32h384c17.64 0 32 14.34 32 32v240c0 8.844 7.156 16 16 16s16-7.156 16-16V96c0-35.28-28.7-64-64-64H128C92.7 32 64 60.72 64 96v240C64 344.8 71.16 352 80 352z"/></svg>
